icons/expense-reimbursment.svg

<svg
  xmlns="http://www.w3.org/2000/svg"
  viewBox="0 0 500 500"
  width="500"
  height="500"
  fill="#ffffff"
>
  <path d="M427.9 157.4a12.3 12.3 0 1 0 15.6 7.8 12.3 12.3 0 0 0-15.6-7.8z" />
  <path d="M458.2 248.1a12.3 12.3 0 1 0-15.5-7.8 12.3 12.3 0 0 0 15.5 7.8z" />
  <path d="M53 115.3H5v125.8a11.1 11.1 0 0 0 .2 1.7H5v21.9h22.2l1.6.2h47.9V139.1A23.8 23.8 0 0 0 53 115.3zM40.9 242.8a10.3 10.3 0 1 1 10.2-10.3 10.3 10.3 0 0 1-10.2 10.3z" />
  <path d="M358.4 187.4a38.6 38.6 0 0 0-25.9 31.2l54.6 40.4a38.6 38.6 0 0 0-28.7-71.6z" />
  <path d="M336.7 242.5h.1L269.1 193h-.2l-35.6-26 42.3.7a15 15 0 0 0 5.7-29.5l-3-.3-102.4-9v.3a27.5 27.5 0 0 0-26.1 11.2l-8.8 12-50.9-13.1v109.1l25.1 4.9 14.9 10.9a12.6 12.6 0 0 0 2.4 2.2l157.9 115.4c5.8 4.3 13.5 3.7 17.2-1.4s1.9-12.6-4-16.9L222.2 304a37 37 0 0 0 3.7-4.2l1.9-2.6 111.4 81.4c7 5.1 16.2 4.4 20.6-1.7s2.2-15-4.8-20.1l-111.4-81.5 8-11.1 114.2 83.4c6.9 5.1 16.1 4.3 20.5-1.7s2.2-15.1-4.8-20.2l-114.1-83.4 7.5-10.5.5-.7 105.8 77.3c7 5.1 16.2 4.4 20.5-1.7s2.7-12.4-1.9-17.6z" />
  <path d="M493.3 230.3L466.8 151a32.2 32.2 0 0 0-40.8-20.3l-146.2 48.9 13.5 10 137.1-45.9a18.5 18.5 0 0 1 23.3 11.6l26.6 79.4a18.5 18.5 0 0 1-11.6 23.3l-57.1 19.1 13.5 10 47.9-16a32.2 32.2 0 0 0 20.3-40.8z" />
</svg>

<svg xmlns="http://www.w3.org/2000/svg" viewBox="0 0 500 500">
  <g id="expense-reimbursment">
    <g id="expenseReimbursmentIcon">
      <path id="circle2" d="M427.9,157.4a12.3,12.3,0,1,0,15.6,7.8A12.3,12.3,0,0,0,427.9,157.4Z"/>
      <path id="circle1" d="M458.2,248.1a12.3,12.3,0,1,0-15.5-7.8A12.3,12.3,0,0,0,458.2,248.1Z"/>
      <path id="cuff" d="M53,115.3H5V241.1a11.1,11.1,0,0,0,.2,1.7H5v21.9H27.2l1.6.2H76.7V139.1A23.8,23.8,0,0,0,53,115.3ZM40.9,242.8a10.3,10.3,0,1,1,10.2-10.3A10.3,10.3,0,0,1,40.9,242.8Z"/>
      <path id="dollar" d="M358.4,187.4a38.6,38.6,0,0,0-25.9,31.2L387.1,259a38.6,38.6,0,0,0-28.7-71.6Z"/>
      <path id="hand" d="M336.7,242.5h.1L269.1,193h-.2l-35.6-26,42.3.7a15,15,0,0,0,5.7-29.5l-3-.3-102.4-9v.3a27.5,27.5,0,0,0-26.1,11.2L141,152.4,90.1,139.3V248.4l25.1,4.9,14.9,10.9a12.6,12.6,0,0,0,2.4,2.2L290.4,381.8c5.8,4.3,13.5,3.7,17.2-1.4s1.9-12.6-4-16.9L222.2,304a37,37,0,0,0,3.7-4.2l1.9-2.6,111.4,81.4c7,5.1,16.2,4.4,20.6-1.7s2.2-15-4.8-20.1L243.6,275.3l8-11.1,114.2,83.4c6.9,5.1,16.1,4.3,20.5-1.7s2.2-15.1-4.8-20.2L267.4,242.3l7.5-10.5.5-.7,105.8,77.3c7,5.1,16.2,4.4,20.5-1.7s2.7-12.4-1.9-17.6Z"/>
      <path id="corner" d="M493.3,230.3,466.8,151A32.2,32.2,0,0,0,426,130.7L279.8,179.6l13.5,10,137.1-45.9a18.5,18.5,0,0,1,23.3,11.6l26.6,79.4A18.5,18.5,0,0,1,468.7,258l-57.1,19.1,13.5,10,47.9-16A32.2,32.2,0,0,0,493.3,230.3Z"/>
    </g>
  </g>
</svg>
